images_sukapura_svg/cmd/lc_setminimalrowheight.svg

<svg viewBox="0 0 24 24" xmlns="http://www.w3.org/2000/svg"><path d="m3 11v4h18v-4z" fill="#fff"/><path d="m2 10v1 4h1 5 1 6 1 5 1v-4-1zm1 1h5 1 6 1 5v3h-5-1-6-1-5z" fill="#69696e"/><path d="m8 11v3h1v-3zm7 0v3h1v-3z" fill="#bababa"/></svg>

<?xml version="1.0" encoding="UTF-8" standalone="no"?>
<svg
   xmlns:dc="http://purl.org/dc/elements/1.1/"
   xmlns:cc="http://creativecommons.org/ns#"
   xmlns:rdf="http://www.w3.org/1999/02/22-rdf-syntax-ns#"
   xmlns:svg="http://www.w3.org/2000/svg"
   xmlns="http://www.w3.org/2000/svg"
   xmlns:sodipodi="http://sodipodi.sourceforge.net/DTD/sodipodi-0.dtd"
   xmlns:inkscape="http://www.inkscape.org/namespaces/inkscape"
   viewBox="0 0 24 24"
   version="1.1"
   id="svg12"
   sodipodi:docname="lc_setminimalrowheight.svg"
   inkscape:version="0.92.3 (unknown)">
  <metadata
     id="metadata18">
    <rdf:RDF>
      <cc:Work
         rdf:about="">
        <dc:format>image/svg+xml</dc:format>
        <dc:type
           rdf:resource="http://purl.org/dc/dcmitype/StillImage" />
        <dc:title></dc:title>
      </cc:Work>
    </rdf:RDF>
  </metadata>
  <defs
     id="defs16">
    <linearGradient
       gradientTransform="translate(75,-7)"
       id="a-367"
       gradientUnits="userSpaceOnUse"
       x1="14"
       x2="13.79661"
       y1="22"
       y2="2.1355929">
      <stop
         offset="0"
         stop-color="#0040dd"
         id="stop2206" />
      <stop
         offset="1"
         stop-color="#0a84ff"
         id="stop2208" />
    </linearGradient>
  </defs>
  <sodipodi:namedview
     pagecolor="#ffffff"
     bordercolor="#666666"
     borderopacity="1"
     objecttolerance="10"
     gridtolerance="10"
     guidetolerance="10"
     inkscape:pageopacity="0"
     inkscape:pageshadow="2"
     inkscape:window-width="1366"
     inkscape:window-height="706"
     id="namedview14"
     showgrid="true"
     inkscape:zoom="4.9166667"
     inkscape:cx="-31.637637"
     inkscape:cy="-19.452297"
     inkscape:window-x="0"
     inkscape:window-y="0"
     inkscape:window-maximized="1"
     inkscape:current-layer="svg12">
    <inkscape:grid
       type="xygrid"
       id="grid828"
       spacingx="0.5"
       spacingy="0.5"
       empspacing="2" />
  </sodipodi:namedview>
  <path
     d="m3 11v4h18v-4z"
     fill="#fff"
     id="path2" />
  <path
     style="fill:#69696e;fill-opacity:1"
     d="M 2 10 L 2 11 L 2 15 L 3 15 L 8 15 L 9 15 L 15 15 L 16 15 L 21 15 L 22 15 L 22 11 L 22 10 L 2 10 z M 3 11 L 8 11 L 9 11 L 15 11 L 16 11 L 21 11 L 21 14 L 16 14 L 15 14 L 9 14 L 8 14 L 3 14 L 3 11 z "
     id="path4" />
  <path
     style="fill:#bababa;fill-opacity:1"
     d="M 8 11 L 8 14 L 9 14 L 9 11 L 8 11 z M 15 11 L 15 14 L 16 14 L 16 11 L 15 11 z "
     id="rect863" />
</svg>
